assets/images/svg/bishopquigley-sm.svg

<svg width="438" height="196" viewBox="0 0 438 196" fill="none" xmlns="http://www.w3.org/2000/svg">
<path d="M312.06 73.8093C291.525 73.777 275.526 57.5882 275.573 36.8763C275.612 16.6206 291.816 0.546825 312.168 0.568381C332.298 0.589937 348.505 17.0625 348.469 37.4655C348.433 57.4517 332.014 73.8416 312.057 73.8093H312.06ZM286.886 37.1206C287.009 38.3708 287.091 39.6247 287.253 40.8714C289.696 59.5822 308.302 67.5221 322.95 60.5307C332.783 55.8386 338.255 45.1395 336.879 33.7973C334.964 17.9822 320.575 8.20648 305.191 12.2626C294.323 15.1296 286.973 25.1497 286.883 37.1206H286.886ZM383.304 48.4053L371.168 51.1429C371.168 51.1429 370.992 60.8756 371.434 65.2946C371.645 67.4215 372.946 69.4406 373.758 71.5172H356.542C356.538 71.4992 356.459 71.3627 356.499 71.316C358.999 68.1616 359.714 64.5401 359.696 60.581C359.617 44.1515 359.657 27.7221 359.667 11.2926C359.667 7.74661 358.708 4.49162 356.826 1.49171C356.693 1.27974 356.588 1.0498 356.387 0.665384C356.973 0.629457 357.418 0.575566 357.864 0.575566C366.702 0.571974 375.544 0.571974 384.382 0.575566C390.238 0.575566 395.749 1.83661 400.527 5.37183C406.962 10.1322 409.678 16.5523 409.042 24.5102C407.695 37.5876 397.729 45.5419 383.311 48.4089L383.304 48.4053ZM371.089 39.4954C371.089 39.4954 382.319 36.6535 387.892 35.2452C396.227 33.1399 398.889 24.8659 397.265 19.2289C395.885 14.4434 391.919 11.5657 386.455 11.501C381.669 11.4435 371.089 11.6231 371.089 11.6231V39.4954ZM124.949 61.533C124.97 44.4892 124.967 27.4454 124.949 10.4016C124.949 7.06759 125.761 4.0066 127.672 1.251C127.805 1.06058 127.873 0.823463 127.992 0.568381H110.175C112.813 3.84493 113.513 7.43045 113.495 11.3249C113.43 27.6358 113.42 43.9431 113.502 60.254C113.524 64.2563 112.87 67.946 110.398 71.1866C110.366 71.2297 110.449 71.3627 110.474 71.4345H128.182C125.897 68.3268 124.934 65.1006 124.941 61.5366L124.949 61.533ZM72.1143 0.568381C74.525 0.568381 76.9322 0.712089 79.3069 1.15758C81.8506 1.63542 84.3188 2.35396 86.6253 3.54674C89.7904 5.18501 92.485 7.36219 94.2239 10.5525C95.2334 12.3992 95.8298 14.3823 96.0561 16.4769C96.1172 17.0373 96.2034 17.5942 96.2286 18.1583C96.4837 23.9066 92.4491 30.6286 89.0719 32.9674C91.5401 33.4812 96.2717 37.1781 98.1147 40.8678C99.0991 42.8366 99.8213 44.9132 100.012 47.1083C100.353 50.9812 100.166 54.8111 98.5674 58.4433C96.886 62.2659 94.2203 65.2371 90.6958 67.4466C87.4372 69.4873 83.8589 70.6154 80.0794 71.1974C78.0639 71.51 76.0448 71.5172 74.0113 71.5136H43.7212C43.7176 71.4956 43.6385 71.3591 43.6781 71.3124C46.1786 68.158 46.8935 64.5365 46.8756 60.5774C46.7965 44.1479 46.836 27.7185 46.8468 11.289C46.8468 7.74302 45.8876 4.48802 44.005 1.48811C43.8721 1.27614 43.7679 1.04621 43.5667 0.661791C44.1523 0.625864 44.5978 0.571974 45.0433 0.571974C53.8813 0.568381 63.2835 0.568381 72.1251 0.571974M58.3219 33.4165C58.3219 33.4165 71.3778 30.2477 76.2819 28.7388C82.8924 26.7053 85.9391 21.6504 84.6313 17.1164C83.5212 13.2686 80.3309 10.9549 75.937 10.901C72.0892 10.8543 58.3183 10.998 58.3183 10.998V33.4165H58.3219ZM58.3219 60.6456C58.3219 60.6456 72.0892 60.7893 75.9406 60.7426C82.7955 60.7426 87.1319 57.2362 88.242 53.3884C89.5497 48.8544 87.5737 41.9851 80.9632 39.948C76.0555 38.4391 58.3219 44.1982 58.3219 44.1982V60.642V60.6456ZM261.328 61.533C261.353 44.4928 261.346 27.449 261.335 10.4016C261.328 7.06759 262.143 4.0066 264.055 1.251C264.18 1.06058 264.249 0.819871 264.367 0.568381H246.547C249.188 3.84493 249.889 7.43045 249.867 11.3214C249.835 19.6133 249.817 27.9017 249.817 36.1865H219.164C219.164 27.5927 219.157 18.999 219.149 10.4016C219.142 7.06759 219.958 4.0066 221.869 1.251C222.009 1.06058 222.078 0.819871 222.196 0.568381H204.383C207.017 3.84493 207.717 7.43045 207.703 11.3214C207.635 27.6322 207.628 43.9395 207.71 60.2504C207.728 64.2527 207.071 67.946 204.603 71.1866C204.57 71.2297 204.653 71.3627 204.678 71.4345H222.39C220.105 68.3268 219.146 65.1006 219.146 61.533C219.153 56.6002 219.16 51.6782 219.16 46.7454H249.835C249.842 51.2471 249.86 55.7488 249.878 60.2504C249.896 64.2527 249.246 67.946 246.777 71.1866C246.745 71.2297 246.828 71.3627 246.853 71.4345H264.558C262.28 68.3268 261.313 65.1006 261.317 61.533H261.328ZM142.883 66.4694C144.324 66.4694 145.564 66.2754 146.663 66.6922C153.651 69.34 161.605 71.5172 166.118 71.5172C181.06 71.5172 190.713 63.3006 190.713 50.5825C190.713 45.0317 188.935 40.7097 185.277 37.3793C181.595 34.0344 176.353 32.0225 172.196 30.6465C170.889 30.2154 169.534 29.7986 167.932 29.3352L166.886 29.0262C162.582 27.7903 154.553 25.4802 154.553 18.8696C154.553 16.538 155.72 11.0699 166.534 10.6495C172.074 10.434 177.797 12.2626 187.76 17.5439V3.50362C187.584 3.43895 187.411 3.50362 187.207 3.50362C185.349 3.50362 183.309 3.35273 180.496 2.5767C176.637 1.51326 171.851 0.568381 166.696 0.568381C152.289 0.568381 142.984 8.51545 142.984 20.8133C142.984 31.8968 150.112 36.5242 160.815 40.0558C162.259 40.5193 163.628 40.9289 165.241 41.3959C172.193 43.4258 177.679 45.0245 177.679 51.5669C177.679 57.3583 173.429 60.8324 166.315 60.8576C165.036 60.8576 154.574 59.0361 142.876 51.4519V66.4694H142.883ZM73.3682 132.112C73.4077 111.705 57.2046 95.2326 37.0675 95.2111C16.7004 95.1895 0.497313 111.26 0.4542 131.515C0.411088 150.934 14.4694 166.379 33.1442 168.258C38.21 186.487 62.2272 196.357 95.74 194.945C109.669 194.359 120.052 190.055 134.674 182.862C136.169 182.126 137.505 181.831 139.302 181.831V165.341C131.99 175.461 111.986 183.355 91.5221 183.958C73.8137 184.483 55.7603 179.388 45.2768 167.486C61.2787 163.71 73.3287 149.224 73.3574 132.112H73.3682ZM47.8456 155.177C33.1981 162.168 14.5879 154.225 12.1449 135.514C11.9868 134.271 11.897 133.014 11.7784 131.763C11.8682 119.792 19.2153 109.772 30.0904 106.905C45.4708 102.853 59.8596 112.625 61.7745 128.444C63.1505 139.782 57.6752 150.485 47.8456 155.177ZM240.957 138.417C240.982 133.499 244.88 130.473 243.372 130.499H227.298C225.782 130.473 229.712 133.517 229.712 138.464L229.719 138.456C229.712 139.592 229.59 149.777 229.637 153.869C229.647 154.742 229.378 155.163 228.537 155.457C223.619 157.192 218.571 157.609 213.53 156.416C201.689 153.614 194.036 143.716 193.824 131.576C193.584 117.633 204.965 104.944 219.843 105.856C225.361 106.194 234.444 110.893 238.212 114.949C240.99 117.845 240.957 117.41 240.957 116.261C240.957 110.854 240.921 101.329 240.99 97.2122C241.007 96.1308 238.834 98.9367 235.299 98.9367C231.763 98.9367 221.711 93.6985 211.763 95.635C194.392 98.9044 182.353 114.166 182.446 131.135C182.504 141.888 186.265 150.973 194.126 158.281C201.556 165.186 210.865 168.103 220.026 167.924C221.697 167.963 223.464 167.78 225.21 167.486C227.251 167.187 229.263 166.738 231.228 166.149C233.535 165.56 235.428 165.053 236.448 165.053C239.269 165.053 241 167.292 240.986 166.429C240.928 162.793 240.954 141.819 240.954 138.41L240.957 138.417ZM332.086 105.964H356.42C361.518 105.964 364.083 107.318 365.746 107.904C364.809 103.798 363.835 99.5295 362.851 95.2111H316.469C319.602 98.9762 320.004 103.007 319.986 107.254C319.907 123.838 319.939 140.418 319.968 157.002C319.968 161.446 317.018 165.775 316.702 166.268H362.851C363.835 161.949 364.809 157.681 365.746 153.575C364.083 154.164 361.518 155.515 356.42 155.515H332.086V136.085H346.234C346.234 136.085 355.367 135.963 359.649 138.262V122.828C355.367 125.128 346.234 125.005 346.234 125.005H332.086V105.96V105.964ZM167.813 156.176C167.835 139.132 167.831 122.088 167.813 105.044C167.813 101.71 168.625 98.6493 170.537 95.8937C170.669 95.6997 170.741 95.4661 170.86 95.2111H153.044C155.681 98.4876 156.381 102.073 156.363 105.968C156.299 122.279 156.288 138.586 156.37 154.897C156.392 158.899 155.738 162.589 153.266 165.829C153.234 165.872 153.317 166.005 153.342 166.077H171.05C168.765 162.97 167.802 159.743 167.81 156.179L167.813 156.176ZM255.479 95.2111C258.612 98.9762 259.014 103.007 258.996 107.254C258.917 123.838 258.949 140.418 258.978 157.002C258.978 161.446 256.029 165.775 255.712 166.268H301.861C302.845 161.949 303.819 157.681 304.757 153.575C303.093 154.164 300.528 155.515 295.43 155.515H271.089C271.118 138.931 271.168 123.834 271.089 107.25C271.068 103.004 271.474 98.9726 274.607 95.2075H255.475L255.479 95.2111ZM138.684 95.2111H120.796C123.788 98.8038 124.262 102.806 124.23 107.056C124.13 118.549 124.205 121.829 124.18 133.323C124.173 135.104 124.104 136.897 123.846 138.647C123.221 142.822 120.282 148.922 109.96 148.922C99.6381 148.922 96.6992 142.818 96.0741 138.647C95.8154 136.897 95.7472 135.104 95.74 133.323C95.7148 121.829 95.7903 118.549 95.6969 107.056C95.6609 102.806 96.1388 98.8038 99.1243 95.2111H81.2362C81.4697 95.6134 84.3691 100.78 84.3691 104.746C84.3691 117.234 84.2433 121.517 84.4373 134.005C84.4948 137.623 85.005 141.374 86.1223 144.801C88.7917 152.971 95.6861 159.74 109.956 159.74C124.227 159.74 131.121 152.971 133.79 144.801C134.908 141.374 135.418 137.623 135.475 134.005C135.669 121.517 135.544 117.234 135.544 104.746C135.544 100.209 138.443 95.617 138.676 95.2111H138.684ZM418.25 95.2111C419.001 98.5415 417.959 102.727 416.411 105.418L406.322 127.377L396.234 105.418C394.686 102.723 393.647 98.5379 394.395 95.2111H374.951C375.518 95.6566 382.01 101.538 384.012 104.778L400.229 138.456C400.2 145.505 400.225 144.072 400.251 156.779C400.251 161.223 397.301 165.549 396.985 166.048H415.649C415.333 165.549 412.383 161.223 412.383 156.779H412.369V138.528L428.622 104.778C430.623 101.541 437.115 95.6601 437.683 95.2111H418.239H418.25Z" fill="white"/>
</svg>

<?xml version="1.0" encoding="UTF-8"?>
<svg id="Layer_1" xmlns="http://www.w3.org/2000/svg" version="1.1" viewBox="0 0 438 196">
  <!-- Generator: Adobe Illustrator 29.5.0, SVG Export Plug-In . SVG Version: 2.1.0 Build 137)  -->
  <defs>
    <style>
      .st0 {
        fill: #4f2c1d;
      }
    </style>
  </defs>
  <path class="st0" d="M312.06,73.809c-20.535-.032-36.534-16.221-36.487-36.933.039-20.256,16.243-36.329,36.595-36.308,20.13.022,36.337,16.494,36.301,36.897-.036,19.986-16.455,36.376-36.412,36.344h.003ZM286.886,37.121c.123,1.25.205,2.504.367,3.751,2.443,18.711,21.049,26.651,35.697,19.659,9.833-4.692,15.305-15.391,13.929-26.733-1.915-15.815-16.304-25.591-31.688-21.535-10.868,2.867-18.218,12.887-18.308,24.858h.003ZM383.304,48.405l-12.136,2.738s-.176,9.733.266,14.152c.211,2.127,1.512,4.146,2.324,6.223h-17.216c-.004-.018-.083-.154-.043-.201,2.5-3.154,3.215-6.776,3.197-10.735-.079-16.43-.039-32.859-.029-49.288,0-3.546-.959-6.801-2.841-9.801-.133-.212-.238-.442-.439-.826.586-.036,1.031-.09,1.477-.09,8.838-.004,17.68-.004,26.518,0,5.856,0,11.367,1.261,16.145,4.796,6.435,4.76,9.151,11.18,8.515,19.138-1.347,13.077-11.313,21.032-25.731,23.899l-.007-.004ZM371.089,39.495s11.23-2.842,16.803-4.25c8.335-2.105,10.997-10.379,9.373-16.016-1.38-4.786-5.346-7.663-10.81-7.728-4.786-.058-15.366.122-15.366.122v27.872ZM124.949,61.533c.021-17.044.018-34.088,0-51.131,0-3.334.812-6.395,2.723-9.151.133-.19.201-.428.32-.683h-17.817c2.638,3.277,3.338,6.862,3.32,10.757-.065,16.311-.075,32.618.007,48.929.022,4.002-.632,7.692-3.104,10.933-.032.043.051.176.076.248h17.708c-2.285-3.108-3.248-6.334-3.241-9.898l.008-.004ZM72.114.568c2.411,0,4.818.144,7.193.589,2.544.478,5.012,1.196,7.318,2.389,3.165,1.638,5.86,3.815,7.599,7.006,1.009,1.847,1.606,3.83,1.832,5.924.061.56.147,1.117.173,1.681.255,5.748-3.78,12.47-7.157,14.809,2.468.514,7.2,4.211,9.043,7.9.984,1.969,1.707,4.045,1.897,6.24.341,3.873.154,7.703-1.445,11.335-1.681,3.823-4.347,6.794-7.872,9.003-3.259,2.041-6.837,3.169-10.616,3.751-2.015.313-4.035.32-6.068.316h-30.29c-.004-.018-.083-.155-.043-.201,2.5-3.154,3.215-6.776,3.197-10.735-.079-16.43-.04-32.859-.029-49.288,0-3.546-.959-6.801-2.842-9.801-.133-.212-.237-.442-.438-.826.586-.036,1.031-.09,1.477-.09,8.838-.004,18.24-.004,27.082,0M58.322,33.417s13.056-3.169,17.96-4.678c6.611-2.034,9.657-7.088,8.349-11.622-1.11-3.848-4.3-6.161-8.694-6.215-3.848-.047-17.619.097-17.619.097v22.418h.004ZM58.322,60.646s13.767.144,17.619.097c6.855,0,11.191-3.506,12.301-7.354,1.308-4.534-.668-11.403-7.279-13.44-4.908-1.509-22.641,4.25-22.641,4.25v16.447ZM261.328,61.533c.025-17.04.018-34.084.007-51.131-.007-3.334.808-6.395,2.72-9.151.125-.19.194-.431.312-.683h-17.82c2.641,3.277,3.342,6.862,3.32,10.753-.032,8.292-.05,16.58-.05,24.865h-30.653c0-8.594-.007-17.188-.015-25.785-.007-3.334.809-6.395,2.72-9.151.14-.19.209-.431.327-.683h-17.813c2.634,3.277,3.334,6.862,3.32,10.753-.068,16.311-.075,32.618.007,48.929.018,4.002-.639,7.696-3.107,10.936-.033.043.05.176.075.248h17.712c-2.285-3.108-3.244-6.334-3.244-9.902.007-4.933.014-9.855.014-14.788h30.675c.007,4.502.025,9.003.043,13.505.018,4.002-.632,7.696-3.101,10.936-.032.043.051.176.076.248h17.705c-2.278-3.108-3.245-6.334-3.241-9.902h.011ZM142.883,66.469c1.441,0,2.681-.194,3.78.223,6.988,2.648,14.942,4.825,19.455,4.825,14.942,0,24.595-8.217,24.595-20.935,0-5.551-1.778-9.873-5.436-13.203-3.682-3.345-8.924-5.357-13.081-6.733-1.307-.431-2.662-.848-4.264-1.311l-1.046-.309c-4.304-1.236-12.333-3.546-12.333-10.157,0-2.332,1.167-7.8,11.981-8.22,5.54-.215,11.263,1.613,21.226,6.894V3.504c-.176-.065-.349,0-.553,0-1.858,0-3.898-.151-6.711-.927-3.859-1.063-8.645-2.008-13.8-2.008-14.407,0-23.712,7.947-23.712,20.245,0,11.083,7.128,15.711,17.831,19.243,1.444.463,2.813.873,4.426,1.34,6.952,2.03,12.438,3.629,12.438,10.171,0,5.791-4.25,9.266-11.364,9.291-1.279,0-11.741-1.822-23.439-9.406v15.017h.007ZM73.368,132.112c.039-20.407-16.164-36.879-36.301-36.901-20.367-.022-36.57,16.049-36.613,36.304-.043,19.419,14.015,34.864,32.69,36.743,5.066,18.229,29.083,28.099,62.596,26.687,13.929-.586,24.312-4.89,38.934-12.083,1.495-.736,2.831-1.031,4.628-1.031v-16.49c-7.312,10.12-27.316,18.014-47.78,18.617-17.708.525-35.762-4.57-46.245-16.472,16.002-3.776,28.052-18.262,28.081-35.374h.011ZM47.846,155.177c-14.647,6.991-33.258-.952-35.701-19.663-.158-1.243-.248-2.5-.366-3.751.09-11.971,7.437-21.991,18.312-24.858,15.38-4.052,29.769,5.72,31.684,21.539,1.376,11.338-4.099,22.041-13.929,26.733ZM240.957,138.417c.025-4.918,3.923-7.944,2.415-7.918h-16.074c-1.516-.026,2.414,3.018,2.414,7.965l.007-.008c-.007,1.136-.129,11.321-.082,15.413.01.873-.259,1.294-1.1,1.588-4.918,1.735-9.966,2.152-15.007.959-11.841-2.802-19.494-12.7-19.706-24.84-.24-13.943,11.141-26.632,26.019-25.72,5.518.338,14.601,5.037,18.369,9.093,2.778,2.896,2.745,2.461,2.745,1.312,0-5.407-.036-14.932.033-19.049.017-1.081-2.156,1.725-5.691,1.725s-13.588-5.238-23.536-3.302c-17.371,3.269-29.41,18.531-29.317,35.5.058,10.753,3.819,19.838,11.68,27.146,7.43,6.905,16.739,9.822,25.9,9.643,1.671.039,3.438-.144,5.184-.438,2.041-.299,4.053-.748,6.018-1.337,2.307-.589,4.2-1.096,5.22-1.096,2.821,0,4.552,2.239,4.538,1.376-.058-3.636-.032-24.61-.032-28.019l.003.007ZM332.086,105.964h24.334c5.098,0,7.663,1.354,9.326,1.94-.937-4.106-1.911-8.374-2.895-12.693h-46.382c3.133,3.765,3.535,7.796,3.517,12.043-.079,16.584-.047,33.164-.018,49.748,0,4.444-2.95,8.773-3.266,9.266h46.149c.984-4.319,1.958-8.587,2.895-12.693-1.663.589-4.228,1.94-9.326,1.94h-24.334v-19.43h14.148s9.133-.122,13.415,2.177v-15.434c-4.282,2.3-13.415,2.177-13.415,2.177h-14.148v-19.045.004ZM167.813,156.176c.022-17.044.018-34.088,0-51.132,0-3.334.812-6.395,2.724-9.15.132-.194.204-.428.323-.683h-17.816c2.637,3.277,3.337,6.862,3.319,10.757-.064,16.311-.075,32.618.007,48.929.022,4.002-.632,7.692-3.104,10.932-.032.043.051.176.076.248h17.708c-2.285-3.107-3.248-6.334-3.24-9.898l.003-.003ZM255.479,95.211c3.133,3.765,3.535,7.796,3.517,12.043-.079,16.584-.047,33.164-.018,49.748,0,4.444-2.949,8.773-3.266,9.266h46.149c.984-4.319,1.958-8.587,2.896-12.693-1.664.589-4.229,1.94-9.327,1.94h-24.341c.029-16.584.079-31.681,0-48.265-.021-4.246.385-8.277,3.518-12.043h-19.132l.004.004ZM138.684,95.211h-17.888c2.992,3.593,3.466,7.595,3.434,11.845-.1,11.493-.025,14.773-.05,26.267-.007,1.781-.076,3.574-.334,5.324-.625,4.175-3.564,10.275-13.886,10.275s-13.261-6.104-13.886-10.275c-.259-1.75-.327-3.543-.334-5.324-.025-11.494.05-14.774-.043-26.267-.036-4.25.442-8.252,3.427-11.845h-17.888c.234.402,3.133,5.569,3.133,9.535,0,12.488-.126,16.771.068,29.259.057,3.618.568,7.369,1.685,10.796,2.669,8.17,9.564,14.939,23.834,14.939s21.165-6.769,23.834-14.939c1.118-3.427,1.628-7.178,1.685-10.796.194-12.488.069-16.771.069-29.259,0-4.537,2.899-9.129,3.132-9.535h.008ZM418.25,95.211c.751,3.33-.291,7.516-1.839,10.207l-10.089,21.959-10.088-21.959c-1.548-2.695-2.587-6.88-1.839-10.207h-19.444c.567.446,7.059,6.327,9.061,9.567l16.217,33.678c-.029,7.049-.004,5.616.022,18.323,0,4.444-2.95,8.77-3.266,9.269h18.664c-.316-.499-3.266-4.825-3.266-9.269h-.014v-18.251l16.253-33.75c2.001-3.237,8.493-9.118,9.061-9.567h-19.444.011Z"/>
</svg>
